X: 31
T: Pat-A-Pan
P: piffero primo c0002
O: French
%R: march
F: http://ancients.sudburymuster.org/mus/col/pdf/carolsF.pdf
Z: 2020 John Chambers <jc:trillian.mit.edu>
M: 4/4
L: 1/8
K: Em
V: 1
V: 2
%%score (1 2)
% - - - - - - - - - -
V: 1 staves=2
E2E2 |\
B2B2 A2B2 | G2FG A2F2 | B4 G4   | F4 F2G2 |\
F2D2 E2F2 | G2EF G2A2 |
B4 ABAG | F4 F2G2 |\
F2D2 E2F2 | G2FG A2F2 | B4 F4   | E4 |]
% - - - - - - - - - -
V: 2
E2E2 |\
G2G2 F2G2 | E2^DE F2D2 | G4 E4 | ^D4 D2E2 |\
^D2B,2 ^C2D2 | E2EF E2F2 | G4 FGFE | ^D4 D2E2 |\
^D2B,2 ^C2D2 | E2^DE F2C2 | ^D2^C2 B,2A,2 | B,4 |]
%% - - - - - - - - - -


